icons/zodiac-scorpio.svg

<svg width="24" height="24" viewBox="0 0 24 24" fill="none" xmlns="http://www.w3.org/2000/svg">
<path fill-rule="evenodd" clip-rule="evenodd" d="M2 4C2 3.44772 2.44772 3 3 3C3.76835 3 4.46924 3.28885 5 3.76389C5.53076 3.28885 6.23165 3 7 3C7.76835 3 8.46924 3.28885 9 3.76389C9.53076 3.28885 10.2316 3 11 3C12.6569 3 14 4.34315 14 6V16C14 17.1046 14.8954 18 16 18H18.5858L17.2929 16.7071C16.9024 16.3166 16.9024 15.6834 17.2929 15.2929C17.6834 14.9024 18.3166 14.9024 18.7071 15.2929L21.7071 18.2929C22.0976 18.6834 22.0976 19.3166 21.7071 19.7071L18.7071 22.7071C18.3166 23.0976 17.6834 23.0976 17.2929 22.7071C16.9024 22.3166 16.9024 21.6834 17.2929 21.2929L18.5858 20H16C13.7909 20 12 18.2091 12 16V6C12 5.44772 11.5523 5 11 5C10.4477 5 10 5.44772 10 6V15C10 15.5523 9.55228 16 9 16C8.44772 16 8 15.5523 8 15V6C8 5.44772 7.55228 5 7 5C6.44772 5 6 5.44772 6 6V15C6 15.5523 5.55228 16 5 16C4.44772 16 4 15.5523 4 15V6C4 5.44772 3.55228 5 3 5C2.44772 5 2 4.55228 2 4Z" fill="black"/>
</svg>

<svg
  width="24"
  height="24"
  viewBox="0 0 24 24"
  xmlns="http://www.w3.org/2000/svg"
>
  <path
    fill-rule="evenodd"
    clip-rule="evenodd"
    d="M2 4a1 1 0 0 1 1-1c.768 0 1.47.289 2 .764A2.989 2.989 0 0 1 7 3c.768 0 1.47.289 2 .764A3 3 0 0 1 14 6v10a2 2 0 0 0 2 2h2.586l-1.293-1.293a1 1 0 0 1 1.414-1.414l3 3a1 1 0 0 1 0 1.414l-3 3a1 1 0 0 1-1.414-1.414L18.586 20H16a4 4 0 0 1-4-4V6a1 1 0 1 0-2 0v9a1 1 0 1 1-2 0V6a1 1 0 0 0-2 0v9a1 1 0 1 1-2 0V6a1 1 0 0 0-1-1 1 1 0 0 1-1-1z"
  />
</svg>
